X:3
T:Bog an Lochain
R:strathspey
Z:id:hn-strathspey-3
M:C
K:Edor
E2E2 E>FB>F|E2E2 F<D (3BAF|E2E2 E>FB>A|1 B<dA>d F<D (3BAF:|2 B<dA>d F<DD>A||
|:B2B>A B<EE>A|B2B>A F<DD>A|B2B>A d>ef>e|1 (3dBA d>A F<DD>A:|2 (3dBA d>A F<DD>f||
e2e2 e>fb>f|e2e2 d>fa>f|e2e2 e>fb>f|g<eb>e (3def a>f|
g<eb>e g<eb>e|g<eb>e (3def a>f|g<ee>f d>ef>e|(3dBA d>A F<DD>A||
|:B2B>A B<EE>A|B2B>A F<DD>A|B2B>A d>ef>e|1 (3dBA d>A F<DD>A:|2 (3dBA d>A F<DD>F||

